X: 14950
T: Geaftaí Baile Bhuí
R: waltz
M: 3/4
K: Gmajor
GA|B2A B2D|G3G2G|G2gg2d|g4dc|B2DG2A|B2BA2G|E4 ((3FGA)|
B2A B2D|G3G2G|G2gg2d|g4dc|B2DG2A|B2BA2G|G4zd|
d2Bd2e/f/|g3g2e|e2dg2e|d4dc|B2DG2A|B2BA2G|E4 ((3FGA)|
B2AB2D|G3G2G|G2gg2d|g4dc|B2DG2A|B2BA2G|G3z||

